24x24/actions/compass.svg

<svg xmlns="http://www.w3.org/2000/svg" width="24" height="24"><path style="fill:currentColor;fill-opacity:1;stroke:none;color:#555e70" d="M2 11a8 8 0 1 0 18 0 8 8 0 1 0-18 0zm1 0a7 7 0 1 1 16 0 7 7 0 1 1-16 0zm13.4-5.4-7 3.8-3.8 7 7-3.8zM10 11a.5.5 0 1 1 2 0 .5.5 0 1 1-2 0zm-7.5 0v1L5 11zM11 2.5h-1L11 5zm8.5 8.5v-1L17 11zM11 19.5h1L11 17z" transform="translate(1 1)"/></svg>

<svg xmlns="http://www.w3.org/2000/svg" viewBox="0 0 24 24" width="24" height="24">
  <defs id="defs3051">
    <style type="text/css" id="current-color-scheme">
            .ColorScheme-Text {
                color:#555e70;
            }
        </style>
  </defs>
  <g transform="translate(1,1)">
    <path style="fill:currentColor;fill-opacity:1;stroke:none" d="M 11 11 m -9 0 a 8 8 0 1 0 18 0 a 8 8 0 1 0 -18 0 z M 11 11 m -8 0 a 7 7 0 1 1 16 0 a 7 7 0 1 1 -16 0 z M 16.4 5.6 L 9.4 9.4 L 5.6 16.4 L 12.6 12.6 z M 11 11 m -1 0 a 0.5 0.5 0 1 1 2 0 a 0.5 0.5 0 1 1 -2 0 z M 2.5 11 L 2.5 12 L 5 11 z M 11 2.5 L 10 2.5 L 11 5 z M 19.5 11 L 19.5 10 L 17 11 z M 11 19.5 L 12 19.5 L 11 17 z" class="ColorScheme-Text"/>
  </g>
</svg>
